X: 173
T:The Fair of Ballydarreen
M:2/2
L:1/8
R:Reel
Z:Robert Greenway, 4/10/1999
K:D
A2AF ABdf|edef dBBF|A2AF ABdB|AFEG FDD2:|!
|:FA~A2 BAFA|(3Bcd ed cAA2|FA~A2 BAdA|F2EG FDD2:|!
<end>
<start>
